assets/images/we.svg

<svg width="76" height="18" viewBox="0 0 76 18" fill="none" xmlns="http://www.w3.org/2000/svg">
<path d="M6.77901 9.53039C6.77901 9.26519 6.72928 9.01657 6.62983 8.78453C6.54144 8.54144 6.40884 8.33149 6.23204 8.1547C6.05525 7.9779 5.8453 7.83978 5.60221 7.74033C5.37017 7.62983 5.11602 7.57459 4.83978 7.57459C4.57459 7.57459 4.32597 7.62431 4.09392 7.72376C3.86188 7.8232 3.65746 7.96133 3.48066 8.13812C3.31492 8.31492 3.1768 8.52486 3.0663 8.76795C2.96685 9 2.91713 9.24862 2.91713 9.51381C2.91713 9.77901 2.96685 10.0276 3.0663 10.2597C3.16575 10.4917 3.30387 10.6961 3.48066 10.8729C3.65746 11.0387 3.86188 11.1768 4.09392 11.2873C4.33702 11.3867 4.59116 11.4365 4.85635 11.4365C5.12155 11.4365 5.37017 11.3867 5.60221 11.2873C5.83425 11.1878 6.03315 11.0497 6.19889 10.8729C6.37569 10.6961 6.51381 10.4917 6.61326 10.2597C6.72376 10.0276 6.77901 9.78453 6.77901 9.53039ZM3 18H0V5.25414H3V6.19889C3.64088 5.39226 4.51381 4.98895 5.61878 4.98895C6.22652 4.98895 6.79006 5.1105 7.30939 5.35359C7.83978 5.58563 8.29834 5.90608 8.68508 6.31492C9.07182 6.72376 9.37017 7.20442 9.58011 7.75691C9.8011 8.30939 9.9116 8.90055 9.9116 9.53039C9.9116 10.1602 9.8011 10.7459 9.58011 11.2873C9.37017 11.8287 9.07182 12.3039 8.68508 12.7127C8.30939 13.1215 7.86188 13.442 7.34254 13.674C6.8232 13.9061 6.25967 14.0221 5.65193 14.0221C4.59116 14.0221 3.70718 13.6575 3 12.9282V18Z" fill="#2C3646"/>
<path d="M11.6216 5.25414H14.6216V6.64641C14.9421 6.13812 15.3343 5.75138 15.7984 5.48619C16.2625 5.20994 16.804 5.07182 17.4227 5.07182C17.5001 5.07182 17.583 5.07182 17.6714 5.07182C17.7708 5.07182 17.8813 5.08287 18.0028 5.10497V7.97238C17.6051 7.77348 17.1741 7.67403 16.71 7.67403C16.0139 7.67403 15.489 7.88398 15.1354 8.30387C14.7929 8.71271 14.6216 9.31492 14.6216 10.1105V13.7569H11.6216V5.25414Z" fill="#2C3646"/>
<path d="M22.2414 9.46409C22.2414 9.75138 22.2911 10.0166 22.3906 10.2597C22.5011 10.4917 22.6392 10.6961 22.8049 10.8729C22.9817 11.0497 23.1862 11.1878 23.4182 11.2873C23.6613 11.3867 23.9154 11.4365 24.1806 11.4365C24.4458 11.4365 24.6944 11.3867 24.9265 11.2873C25.1696 11.1878 25.374 11.0497 25.5398 10.8729C25.7165 10.6961 25.8547 10.4917 25.9541 10.2597C26.0646 10.0166 26.1199 9.7569 26.1199 9.48066C26.1199 9.21547 26.0646 8.96685 25.9541 8.73481C25.8547 8.49171 25.7165 8.28177 25.5398 8.10497C25.374 7.92818 25.1696 7.79005 24.9265 7.69061C24.6944 7.59116 24.4458 7.54144 24.1806 7.54144C23.9154 7.54144 23.6613 7.59116 23.4182 7.69061C23.1862 7.79005 22.9817 7.92818 22.8049 8.10497C22.6392 8.28177 22.5011 8.48619 22.3906 8.71823C22.2911 8.95028 22.2414 9.19889 22.2414 9.46409ZM19.0757 9.43094C19.0757 8.8011 19.2027 8.21547 19.4569 7.67403C19.711 7.12155 20.0646 6.64641 20.5177 6.24862C20.9707 5.83978 21.5066 5.51934 22.1254 5.28729C22.7552 5.05525 23.4403 4.93923 24.1806 4.93923C24.9099 4.93923 25.584 5.05525 26.2027 5.28729C26.8326 5.50829 27.374 5.8232 27.827 6.23204C28.2911 6.62983 28.6502 7.1105 28.9044 7.67403C29.1585 8.22652 29.2856 8.83978 29.2856 9.51381C29.2856 10.1878 29.153 10.8066 28.8878 11.3702C28.6337 11.9227 28.2801 12.4033 27.827 12.8122C27.374 13.2099 26.827 13.5193 26.1862 13.7403C25.5563 13.9613 24.8712 14.0718 24.1309 14.0718C23.4016 14.0718 22.7276 13.9613 22.1088 13.7403C21.49 13.5193 20.9541 13.2044 20.5011 12.7956C20.0591 12.3867 19.711 11.9006 19.4569 11.337C19.2027 10.7624 19.0757 10.1271 19.0757 9.43094Z" fill="#2C3646"/>
<path d="M34.0126 5.25414V10.0442C34.0126 11.0939 34.5209 11.6188 35.5375 11.6188C36.554 11.6188 37.0623 11.0939 37.0623 10.0442V5.25414H40.0623V10.6243C40.0623 11.7735 39.6811 12.6354 38.9187 13.2099C38.1673 13.7845 37.0402 14.0718 35.5375 14.0718C34.0347 14.0718 32.9021 13.7845 32.1397 13.2099C31.3883 12.6354 31.0126 11.7735 31.0126 10.6243V5.25414H34.0126Z" fill="#2C3646"/>
<path d="M44.8846 9.48066C44.8846 9.7569 44.9343 10.0166 45.0338 10.2597C45.1332 10.4917 45.2658 10.6961 45.4316 10.8729C45.6084 11.0497 45.8128 11.1878 46.0448 11.2873C46.2879 11.3867 46.5476 11.4365 46.8238 11.4365C47.089 11.4365 47.3377 11.3867 47.5697 11.2873C47.8128 11.1878 48.0172 11.0497 48.183 10.8729C48.3598 10.6961 48.4979 10.4917 48.5973 10.2597C48.7078 10.0276 48.7631 9.77901 48.7631 9.51381C48.7631 9.24862 48.7078 9 48.5973 8.76795C48.4979 8.52486 48.3598 8.31492 48.183 8.13812C48.0172 7.96133 47.8128 7.8232 47.5697 7.72376C47.3377 7.62431 47.089 7.57459 46.8238 7.57459C46.5587 7.57459 46.3045 7.62431 46.0614 7.72376C45.8294 7.8232 45.625 7.96133 45.4482 8.13812C45.2824 8.31492 45.1443 8.51934 45.0338 8.75138C44.9343 8.97237 44.8846 9.21547 44.8846 9.48066ZM48.6636 0H51.6802V13.7569H48.6636V12.8122C48.0227 13.6188 47.1553 14.0221 46.0614 14.0221C45.4426 14.0221 44.8736 13.9061 44.3542 13.674C43.8349 13.442 43.3819 13.1215 42.9951 12.7127C42.6084 12.3039 42.3045 11.8232 42.0835 11.2707C41.8736 10.7182 41.7686 10.1215 41.7686 9.48066C41.7686 8.87293 41.868 8.29834 42.0669 7.75691C42.2769 7.20442 42.5697 6.72376 42.9454 6.31492C43.3211 5.90608 43.7686 5.58563 44.2879 5.35359C44.8183 5.1105 45.3984 4.98895 46.0283 4.98895C47.089 4.98895 47.9675 5.35912 48.6636 6.09945V0Z" fill="#2C3646"/>
<path d="M56.7217 0V13.7569H53.7217V0H56.7217Z" fill="#2C3646"/>
<path d="M62.0165 12.5967L57.906 5.25414H61.3867L63.6574 9.61326L65.8618 5.25414H69.3093L62.4806 18H59.116L62.0165 12.5967Z" fill="#2C3646"/>
<circle cx="72.8595" cy="12.7764" r="2.41713" fill="#1771F8"/>
</svg>

<svg width="76" height="18" fill="none" xmlns="http://www.w3.org/2000/svg"><path d="M6.779 9.53c0-.265-.05-.513-.15-.745a1.7 1.7 0 00-.397-.63 1.893 1.893 0 00-.63-.415 1.75 1.75 0 00-.762-.165c-.265 0-.514.05-.746.149a1.94 1.94 0 00-.613.414 2.308 2.308 0 00-.415.63c-.1.232-.149.48-.149.746 0 .265.05.514.15.746.099.232.237.436.414.613.176.166.38.304.613.414a1.996 1.996 0 001.508 0c.232-.1.431-.237.597-.414a1.94 1.94 0 00.414-.613c.11-.232.166-.475.166-.73zM3 18H0V5.254h3V6.2c.64-.807 1.514-1.21 2.619-1.21.608 0 1.171.122 1.69.365.53.232.99.552 1.376.96.387.41.685.89.895 1.443a4.73 4.73 0 01.332 1.773c0 .63-.11 1.216-.332 1.757a4.328 4.328 0 01-.895 1.426 4.04 4.04 0 01-1.342.961 4.096 4.096 0 01-1.691.348c-1.06 0-1.945-.364-2.652-1.094V18zm8.622-12.746h3v1.392c.32-.508.712-.895 1.176-1.16.464-.276 1.006-.414 1.625-.414h.248c.1 0 .21.01.332.033v2.867a2.85 2.85 0 00-1.293-.298c-.696 0-1.221.21-1.575.63-.342.409-.513 1.01-.513 1.806v3.647h-3V5.254zm10.619 4.21c0 .287.05.553.15.796.11.232.248.436.414.613.177.177.381.315.613.414a1.995 1.995 0 001.509 0c.243-.1.447-.237.613-.414a1.94 1.94 0 00.414-.613 1.86 1.86 0 00.166-.78c0-.265-.055-.513-.166-.745a1.894 1.894 0 00-.414-.63 1.72 1.72 0 00-.613-.414 1.984 1.984 0 00-1.509 0 1.94 1.94 0 00-.613.414 2.395 2.395 0 00-.414.613c-.1.232-.15.48-.15.746zm-3.165-.033c0-.63.127-1.216.38-1.757a4.223 4.223 0 011.062-1.425c.453-.41.989-.73 1.607-.962a5.9 5.9 0 012.056-.348c.729 0 1.403.116 2.022.348.63.221 1.171.536 1.624.945a4.09 4.09 0 011.077 1.442 4.34 4.34 0 01.382 1.84c0 .674-.133 1.293-.398 1.856a4.4 4.4 0 01-1.061 1.442 4.85 4.85 0 01-1.64.928 6.168 6.168 0 01-2.056.332c-.73 0-1.403-.11-2.022-.332a4.758 4.758 0 01-1.608-.944 4.462 4.462 0 01-1.044-1.459 4.66 4.66 0 01-.381-1.906zm14.937-4.177v4.79c0 1.05.508 1.575 1.525 1.575 1.016 0 1.524-.525 1.524-1.575v-4.79h3v5.37c0 1.15-.38 2.011-1.143 2.586-.752.574-1.879.862-3.381.862-1.503 0-2.636-.287-3.398-.862-.752-.575-1.127-1.437-1.127-2.586v-5.37h3zM44.885 9.48c0 .277.05.537.149.78.1.232.232.436.398.613.176.177.38.315.613.414a2.038 2.038 0 001.525 0c.243-.1.447-.237.613-.414a1.93 1.93 0 00.414-.613c.11-.232.166-.481.166-.746s-.055-.514-.166-.746a1.893 1.893 0 00-.414-.63 1.72 1.72 0 00-.613-.414 1.988 1.988 0 00-1.509 0 1.94 1.94 0 00-.613.414 2.393 2.393 0 00-.414.613c-.1.221-.15.464-.15.73zM48.664 0h3.016v13.757h-3.016v-.945c-.641.807-1.509 1.21-2.603 1.21a4.137 4.137 0 01-3.066-1.31 4.514 4.514 0 01-.911-1.441 4.999 4.999 0 01-.315-1.79c0-.608.099-1.183.298-1.724.21-.553.503-1.033.878-1.442a4.04 4.04 0 011.343-.961 4.127 4.127 0 011.74-.365c1.061 0 1.94.37 2.636 1.11V0zm8.058 0v13.757h-3V0h3zm5.295 12.597l-4.111-7.343h3.48l2.271 4.36 2.205-4.36h3.447L62.481 18h-3.365l2.9-5.403z" fill="#2C3646"/><circle cx="72.859" cy="12.776" r="2.417" fill="#1771F8"/></svg>
